dist/icons/calculator.svg

<?xml version="1.0" encoding="utf-8"?>
<!-- Generated by IcoMoon.io -->
<!DOCTYPE svg PUBLIC "-//W3C//DTD SVG 1.1//EN" "http://www.w3.org/Graphics/SVG/1.1/DTD/svg11.dtd">
<svg version="1.1" xmlns="http://www.w3.org/2000/svg" xmlns:xlink="http://www.w3.org/1999/xlink" width="32" height="32" viewBox="0 0 32 32">
<path d="M24.658 1.884h-17.317c-2.391 0-4.329 1.938-4.329 4.329v19.48c0 2.393 1.938 4.329 4.329 4.329h17.317c2.391 0 4.329-1.936 4.329-4.329v-19.48c0-2.391-1.938-4.329-4.329-4.329zM11.58 25.694h-4.329v-4.329h4.329v4.329zM11.58 19.2h-4.329v-4.329h4.329v4.329zM18.027 25.694h-4.328v-4.329h4.328v4.329zM18.027 19.2h-4.328v-4.329h4.328v4.329zM24.521 25.694h-4.329v-4.329h4.329v4.329h-0zM24.521 19.2h-4.329v-4.329h4.329v4.329h-0zM24.523 10.588h-17.271v-4.329h17.271v4.329z"></path>
</svg>

<svg xmlns="http://www.w3.org/2000/svg" width="32" height="32" viewBox="0 0 32 32"><path d="M24.658 1.884H7.34c-2.39 0-4.328 1.938-4.328 4.33v19.48c0 2.392 1.938 4.328 4.33 4.328h17.316c2.39 0 4.33-1.936 4.33-4.33V6.213c0-2.39-1.94-4.328-4.33-4.328zM11.58 25.694H7.25v-4.33h4.33v4.33zm0-6.494H7.25v-4.33h4.33v4.33zm6.447 6.494H13.7v-4.33h4.327v4.33zm0-6.494H13.7v-4.33h4.327v4.33zm6.494 6.494h-4.328v-4.33h4.33v4.33zm0-6.494h-4.328v-4.33h4.33v4.33zm.003-8.612H7.253v-4.33h17.27v4.33z"/></svg>
